X:1601
T:Ap Shenkin
T:Tempest, The
R:March
C:Trad.
O:Wales
Z:Paul Hardy's Annex Tunebook 2015 (see www.paulhardy.net). Creative Commons cc by-nc-sa licenced.
P:AABA
M:6/8
L:1/8
Q:3/8=100
K:G
P:A
dc|"G"B2B Bgf|"C"e2e efg|"G"ded "Em"dcB|"Am"cBc "D7"Adc|
"G"B2B Bgf|"C"e2e efg|"G"ded "D7"cBA|"G"GAG G +fine+||
P:B
ga|"G"b2g "D"a2f|"G"gfe "D"dcB|"C" cde "G"dBG|"D7"FAA Aga|
"G"b2g "D7"a2f|"G"gfe "D"agf|"G"bag "Em"fge|"D"dgf "Em"e|]

